X:4
T:Lauelenalp-Juiz  Ab  ABCD
T:Toni Zibung  (30.7.1935-25.1.1998)
T:Dirigenten-Notiz  Edi Gasser
C:Unterwalden (CH)
%%partsbox
P:ABCD
M:3/4
R:Naturjodel
L:1/8
K:Ab
[P:A] F>C | E3E/A/ (3cAc | f>c !fermata! !breath! e E c>e | B3E B>e | 
A>cE2 F>C | E3 E/A/ (3cAc | f>c !fermata! !breath! e E c>e | B3 E/c/ cB | A4 ||
L:1/8
M:3/4
[P:B]   EBB4 | DEB2D2 | Ecc4 | f2e2c2 | d3BG2 | E2e2B2 | c3BA2 | A4z2 | 
EBB4 | DEB2D2 | Ecc4 | f2e2c2 | d3BG2 | Eee2 Bc | A6 | A4z2 || 
M:3/4
[P:C]   B3=AB2 | E2 B=A B=B | c3=Bc2 | E2 cA ec | d3c (B2 | 
B2) BE eB | c3B (A2 | A2)z2z2 | B3=AB2 | E2 B=A B=B | 
c3=Bc2 | E2 cA ec | d3c B2 | BA Gd cB | (A6 | A2)z2z2 || 
M:3/4
[P:D] F3Ad2 | F2d2F2 | E4c2 | A4 (3cAc | B3E GB | e3d  cB | A3E Ac | !fermata!e6 | 
F3Ad2 | F2d2F2 | E4c2 | A4 (3cAc | B3E GB | e3c BE | (A6 | A6) | F3Ad2 | 
F2d2F2 | E4c2 | A4 (3cAc | B3E GB | e3d cB | A3E Ac | !fermata!e6 | F3Ad2 | 
F2d2F2 | E4c2 | A4 (3cAc | B3E GB | e3c BE | !fermata!A3"_Echo sehr langsam"c BE | !fermata!A4z2 |] 
%W:
%W:Reihenfolge: A-B-C-D
W:notiert Edi Gasser, Angaben: Tony Zibung
W:UJV-Naturjodelsammlung: Code-Nr: 13-02
W:http://www.naturjodler.ch/code 13.htm  (with AUDIO)
%May 8, 2018

